X: 38756
T: Strop The Razor
R: jig
M: 6/8
K: Gmajor
|:BGG AGG|BGG AGF|DGG GAG|DGG G2A|
BGG AGG|BGG AGF|D2E F2G|ADE FGA:|
|:dcB cAA|dcB cAF|DGG GFG|DGG G(3ABc|
dcB cAA|dcB cAF|D2E F2G|ADE FGA:|
|:B3 cBc|d(3Bcd dBd|g3 gfd|gba gdc|
B3 cBc|dB/c/d d2e|=f3 fde|fdg fdc:|

